icons/desktop/16/location-slash-16.svg

<svg width="16" height="16" viewBox="0 0 16 16" fill="none" xmlns="http://www.w3.org/2000/svg">
<path fill-rule="evenodd" clip-rule="evenodd" d="M0.219873 1.47948C0.512873 1.18667 0.987425 1.18668 1.28043 1.47948L14.5305 14.7206C14.8235 15.0134 14.8235 15.4876 14.5305 15.7804C14.3846 15.9261 14.193 15.9999 14.0012 16L14.0002 15.999C13.8082 15.999 13.616 15.9263 13.47 15.7794L11.3596 13.6705C10.8924 14.1981 10.4201 14.703 9.96213 15.1666C9.43817 15.6972 8.7421 15.9902 8.00117 15.9902C7.26018 15.9902 6.56423 15.6972 6.04022 15.1666C3.74121 12.8391 1.00113 9.53337 1.00113 7.00506C1.00117 5.92936 1.24745 4.91165 1.68375 4.00122L0.219873 2.53833C-0.073047 2.24561 -0.0728842 1.7723 0.219873 1.47948ZM2.82731 5.14401C2.61616 5.72521 2.50019 6.35144 2.50016 7.00506C2.50016 8.558 4.17873 11.1496 7.10566 14.1145C7.58563 14.6002 8.41276 14.6001 8.89278 14.1145C9.40239 13.5986 9.86697 13.0939 10.2942 12.6058L7.67012 9.98353C6.27793 9.83108 5.16887 8.72338 5.01678 7.33199L2.82731 5.14401Z" fill="black"/>
<path d="M8.0002 0C11.86 0.00013459 15.0001 3.14285 15.0002 7.00506C15.0002 8.37713 14.1892 9.97942 13.0832 11.5294L12.0022 10.449C12.9652 9.06 13.5002 7.86847 13.5002 7.00506C13.5001 3.97029 11.033 1.5001 8.0002 1.49997C6.62321 1.49997 5.36559 2.01219 4.39959 2.8516L3.34001 1.79274C4.57901 0.682528 6.21022 0 8.0002 0Z" fill="black"/>
<path d="M8.0002 4.00708C9.65401 4.00721 11.0001 5.35237 11.0002 7.00506C11.0002 7.68959 10.7603 8.31362 10.3723 8.81927L9.29708 7.7448C9.42206 7.52596 9.50021 7.27486 9.50021 7.00506C9.50008 6.17881 8.82701 5.5062 8.0002 5.50607C7.73022 5.50607 7.47895 5.58316 7.25996 5.70906L6.18476 4.63458C6.68975 4.24686 7.31521 4.00708 8.0002 4.00708Z" fill="black"/>
</svg>

<!-- This Source Code Form is subject to the terms of the Mozilla Public
   - License, v. 2.0. If a copy of the MPL was not distributed with this
   - file, You can obtain one at http://mozilla.org/MPL/2.0/. -->
<svg xmlns="http://www.w3.org/2000/svg" width="16" height="16" fill="context-fill" fill-opacity="context-fill-opacity" viewBox="0 0 16 16">
    <path fill-rule="evenodd" d="M.22 1.48a.75.75 0 0 1 1.06 0l13.25 13.24a.749.749 0 0 1-.529 1.28v-.001a.75.75 0 0 1-.531-.22l-2.11-2.108c-.468.527-.94 1.032-1.398 1.496a2.74 2.74 0 0 1-1.96.823 2.74 2.74 0 0 1-1.962-.823c-2.299-2.328-5.039-5.634-5.039-8.162a6.9 6.9 0 0 1 .683-3.004L.22 2.538a.75.75 0 0 1 0-1.059m2.607 3.664A5.4 5.4 0 0 0 2.5 7.005c0 1.553 1.679 4.145 4.606 7.11a1.28 1.28 0 0 0 1.787 0c.51-.516.974-1.021 1.401-1.51L7.67 9.985a3.004 3.004 0 0 1-2.653-2.652z" clip-rule="evenodd" />
    <path d="M8 0c3.86 0 7 3.143 7 7.005 0 1.372-.81 2.974-1.917 4.524l-1.08-1.08c.962-1.389 1.497-2.58 1.497-3.444A5.51 5.51 0 0 0 8 1.5a5.47 5.47 0 0 0-3.6 1.352l-1.06-1.06A6.96 6.96 0 0 1 8 0" />
    <path d="M8 4.007c1.654 0 3 1.345 3 2.998 0 .685-.24 1.309-.628 1.814L9.297 7.745a1.5 1.5 0 0 0 .203-.74c0-.826-.673-1.499-1.5-1.499-.27 0-.521.077-.74.203L6.185 4.635A2.97 2.97 0 0 1 8 4.007" />
</svg>
